X:1
T:Jenny Get Around
M:C
L:1/8
S:Clare Milliner
N:AEae tuning
N:ABC's from a transcription by John Lamancusa, by permission. See http://www.mne.psu.edu/lamancusa/tunes.htm
Z:AK/Fiddler's Companion
Z: Contributed 2016-03-23 14:44:31 by jim Gaskins fiddeji@comcast.net
K:A
fg |: a2 fa e2c2 | ecBA cABG |\
M:2/4
L:1/8
A2 fg |
M:C
L:1/8
A2 fa e2c2 | e2 ef e2 (3efg | a2a2e2f2 | ecBA cABG |
A2A2E2 EG |1 FEFG A2 fg :|2 FEFG A2A2 |\
M:2/4
L:1/8
[A,2E2]f2 ||
M:C
L:1/8
ecBA cABG | A2A2 [A,2E2]f2 | ecBA cABA | F2F2[A,2E2]f2 |
ecBA cABG | A2A2E2 EG |1 FEFG A2A2 |\
M:2/4
L:1/8
[A,2E2]f2 :|\
M:C
L:1/8
|2 FEFG A2fg ||
